symbols/web/border_color/materialsymbolsoutlined/border_color_wght600gradN25fill1_48px.svg

<svg xmlns="http://www.w3.org/2000/svg" height="48" width="48"><path d="M4.15 47.75V41.3h39.7v6.45Zm3.65-11.6v-6.9L26.6 10.5l6.95 6.9L14.8 36.15Zm27.55-20.6-6.9-6.9 4.25-4.3q.6-.75 1.45-.775.85-.025 1.65.775l3.7 3.75q.7.7.7 1.575t-.6 1.575Z"/></svg>

<svg xmlns="http://www.w3.org/2000/svg" height="48" width="48"><path d="M4.15 47.75V41.3H43.85V47.75ZM7.8 36.15V29.25L26.6 10.5L33.55 17.4L14.8 36.15ZM35.35 15.55 28.45 8.65 32.7 4.35Q33.3 3.6 34.15 3.575Q35 3.55 35.8 4.35L39.5 8.1Q40.2 8.8 40.2 9.675Q40.2 10.55 39.6 11.25Z"/></svg>
